src/assets/img/yody-fashion-logo.svg

<svg width="120" height="83" viewBox="0 0 120 83" fill="none" xmlns="http://www.w3.org/2000/svg">
<g clip-path="url(#clip0_17253_139353)">
<path d="M44.5855 41.112C43.1998 41.115 41.8428 40.7162 40.6782 39.9637C39.5135 39.2113 38.591 38.1372 38.0217 36.8712C37.4525 35.6051 37.2609 34.2011 37.47 32.8284C37.6791 31.4556 38.28 30.1728 39.2003 29.1346C40.1206 28.0964 41.3209 27.3472 42.6565 26.9772C43.9921 26.6072 45.406 26.6323 46.7277 27.0494C48.0494 27.4666 49.2225 28.258 50.1055 29.3282C50.9885 30.3984 51.5437 31.7017 51.7042 33.081H58.9165C58.7001 29.3357 57.0354 25.8224 54.2759 23.2872C51.5164 20.752 47.8794 19.3945 44.1373 19.503C40.3952 19.6115 36.8426 21.1774 34.234 23.8682C31.6254 26.5591 30.1661 30.1629 30.1661 33.9145C30.1661 37.6661 31.6254 41.2699 34.234 43.9608C36.8426 46.6516 40.3952 48.2175 44.1373 48.326C47.8794 48.4345 51.5164 47.077 54.2759 44.5418C57.0354 42.0066 58.7001 38.4933 58.9165 34.748H51.7304C51.5263 36.5026 50.6854 38.1206 49.3679 39.2942C48.0504 40.4677 46.3482 41.1147 44.5855 41.112V41.112Z" fill="white"/>
<path d="M20.9514 20.3341V34.4701C20.9514 38.1683 17.6731 41.1645 13.9826 41.1645C10.2921 41.1645 6.9838 38.1571 6.9838 34.4701V20.3341H0V34.4701C-6.59481e-08 36.31 0.361697 38.1319 1.06443 39.8317C1.76717 41.5315 2.79718 43.0759 4.09563 44.3768C5.39408 45.6776 6.93554 46.7094 8.63197 47.4131C10.3284 48.1169 12.1465 48.4789 13.9826 48.4784C16.6465 48.4784 18.6959 47.7988 20.9514 45.73V48.5197C20.9514 52.2179 18.044 55.2141 13.9826 55.2141C9.92119 55.2141 6.69531 52.2104 6.69531 48.5197H0C0.0600531 52.1957 1.55943 55.7008 4.17479 58.2791C6.79014 60.8574 10.3119 62.3024 13.9807 62.3024C17.6495 62.3024 21.1713 60.8574 23.7866 58.2791C26.402 55.7008 27.9014 52.1957 27.9614 48.5197V20.3604L20.9514 20.3341Z" fill="white"/>
<path d="M113.333 20.3341V34.4701C113.333 38.1683 110.055 41.1645 106.364 41.1645C102.674 41.1645 99.3654 38.1608 99.3654 34.4701V20.3341H92.3816V34.4701C92.3816 36.31 92.7433 38.1319 93.446 39.8317C94.1488 41.5315 95.1788 43.0759 96.4772 44.3768C97.7757 45.6776 99.3171 46.7094 101.014 47.4131C102.71 48.1169 104.528 48.4789 106.364 48.4784C109.028 48.4784 111.077 47.7988 113.333 45.73V48.5197C113.333 52.2179 110.426 55.2141 106.364 55.2141C102.303 55.2141 99.0769 52.2104 99.0769 48.5197H92.3816C92.4416 52.1957 93.941 55.7008 96.5564 58.2791C99.1717 60.8574 102.694 62.3024 106.362 62.3024C110.031 62.3024 113.553 60.8574 116.168 58.2791C118.784 55.7008 120.283 52.1957 120.343 48.5197V20.3604L113.333 20.3341Z" fill="#FCAF17"/>
<path d="M82.5128 5.93542V21.9712C80.3763 20.3945 77.7964 19.5363 75.1431 19.5195C67.6498 19.5195 61.5577 25.5268 61.1381 33.0847H68.3167C68.5285 31.2522 69.4316 29.5702 70.8408 28.3833C72.2501 27.1965 74.0589 26.5945 75.8968 26.7008C77.7346 26.8071 79.4623 27.6137 80.7259 28.9552C81.9896 30.2967 82.6935 32.0716 82.6935 33.9164C82.6935 35.7611 81.9896 37.5361 80.7259 38.8776C79.4623 40.2191 77.7346 41.0256 75.8968 41.1319C74.0589 41.2382 72.2501 40.6363 70.8408 39.4494C69.4316 38.2625 68.5285 36.5805 68.3167 34.748H61.1381C61.5614 42.3097 67.6685 48.3095 75.1431 48.3095C77.8174 48.2614 80.4109 47.3824 82.5653 45.7939V45.7939L83.5844 47.9791H89.5453V5.93542H82.5128Z" fill="#FCAF17"/>
</g>
<path d="M9.76033 70.7837H2.89844V82.7027H4.48195V77.6456H9.53898V76.1472H4.48195V72.2821H9.76033V70.7837Z" fill="white"/>
<path d="M20.681 82.7027L16.237 70.7837H14.4491L10.0051 82.7027H11.6908L12.6613 80.0294H18.0248L18.9954 82.7027H20.681ZM15.3346 72.6737L17.48 78.5481H13.2062L15.3346 72.6737Z" fill="white"/>
<path d="M25.6193 82.924C26.8452 82.924 27.8328 82.6175 28.599 82.0045C29.3652 81.3745 29.7398 80.5402 29.7398 79.5016C29.7398 78.7524 29.5695 78.1394 29.1439 77.7137C28.8544 77.3732 28.7012 77.1859 28.2244 76.9305C27.7647 76.6751 27.6285 76.5899 27.0325 76.3686C26.7431 76.2494 26.5387 76.1813 26.4025 76.1302L25.7044 75.9089C24.785 75.6194 24.1379 75.3299 23.7633 75.0575C23.3887 74.7851 23.2014 74.3935 23.2014 73.8656C23.2014 72.7759 24.0698 72.0948 25.3639 72.0948C26.6579 72.0948 27.5604 72.7078 28.0712 73.9337L29.3993 73.1675C28.7012 71.601 27.2539 70.5624 25.3639 70.5624C24.3252 70.5624 23.4398 70.8689 22.7077 71.4818C21.9755 72.0778 21.6179 72.8951 21.6179 73.9337C21.6179 74.8021 21.9755 75.5002 22.3671 75.9259C22.5544 76.1302 22.8439 76.3345 23.2355 76.5389C23.6271 76.7262 23.9677 76.8794 24.2231 76.9816L25.3639 77.3562C26.3685 77.6797 27.1006 77.9691 27.5263 78.2586C27.952 78.5481 28.1733 78.9737 28.1733 79.5356C28.1733 80.6424 27.2879 81.3745 25.6533 81.3745C24.0017 81.3745 22.929 80.6594 22.4693 79.2121L21.1071 79.9954C21.7371 81.8172 23.3887 82.924 25.6193 82.924Z" fill="white"/>
<path d="M38.9045 75.8408H33.1153V70.7837H31.5318V82.7027H33.1153V77.3391H38.9045V82.7027H40.471V70.7837H38.9045V75.8408Z" fill="white"/>
<path d="M43.0217 82.7027H44.6052V70.7837H43.0217V82.7027Z" fill="white"/>
<path d="M46.5321 76.7432C46.5321 78.4629 47.128 79.9102 48.3199 81.1191C49.5118 82.3281 50.9761 82.924 52.6958 82.924C54.4156 82.924 55.8799 82.3281 57.0718 81.1191C58.2807 79.9102 58.8767 78.4629 58.8767 76.7432C58.8767 75.0235 58.2807 73.5591 57.0718 72.3672C55.8799 71.1583 54.4156 70.5624 52.6958 70.5624C50.9761 70.5624 49.5118 71.1583 48.3199 72.3672C47.128 73.5591 46.5321 75.0235 46.5321 76.7432ZM57.2931 76.7432C57.2931 78.0543 56.8504 79.144 55.965 80.0464C55.0967 80.9318 54.0069 81.3745 52.6958 81.3745C51.3848 81.3745 50.295 80.9318 49.4096 80.0464C48.5412 79.144 48.0985 78.0543 48.0985 76.7432C48.0985 75.4321 48.5412 74.3254 49.4096 73.4399C50.295 72.5375 51.3848 72.0948 52.6958 72.0948C54.0069 72.0948 55.0967 72.5375 55.965 73.4399C56.8504 74.3254 57.2931 75.4321 57.2931 76.7432Z" fill="white"/>
<path d="M68.1871 79.6718L62.0574 70.7837H60.7804V82.7027H62.3639V73.7975L68.4936 82.7027H69.7706V70.7837H68.1871V79.6718Z" fill="white"/>
<path d="M75.6064 70.7837V72.2821H79.1139V82.7027H80.6804V72.2821H84.205V70.7837H75.6064Z" fill="white"/>
<path d="M87.3557 77.4243H92.3787V75.9429H87.3557V72.2821H92.8043V70.7837H85.7722V82.7027H92.8895V81.2043H87.3557V77.4243Z" fill="white"/>
<path d="M100.32 82.924C101.41 82.924 102.414 82.6686 103.334 82.1408C104.253 81.6129 104.968 80.8978 105.462 80.0124L104.083 79.2291C103.402 80.5232 101.954 81.3745 100.32 81.3745C98.9407 81.3745 97.8169 80.9318 96.9486 80.0464C96.0802 79.161 95.6545 78.0543 95.6545 76.7432C95.6545 75.4151 96.0802 74.3083 96.9486 73.4229C97.8169 72.5375 98.9407 72.0948 100.32 72.0948C101.954 72.0948 103.402 72.9462 104.083 74.2572L105.462 73.457C104.44 71.6862 102.499 70.5624 100.32 70.5624C98.515 70.5624 97.0167 71.1583 95.8418 72.3502C94.6669 73.5421 94.088 75.0064 94.088 76.7432C94.088 78.4799 94.6669 79.9443 95.8418 81.1362C97.0167 82.3281 98.515 82.924 100.32 82.924Z" fill="white"/>
<path d="M114.628 75.8408H108.839V70.7837H107.255V82.7027H108.839V77.3391H114.628V82.7027H116.195V70.7837H114.628V75.8408Z" fill="white"/>
<defs>
<clipPath id="clip0_17253_139353">
<rect width="120" height="68.9189" fill="white"/>
</clipPath>
</defs>
</svg>

<svg xmlns="http://www.w3.org/2000/svg" width="120" height="83" fill="none"><g clip-path="url(#A)"><g fill="#fff"><path d="M44.586 41.112a7.17 7.17 0 0 1-3.907-1.148 7.18 7.18 0 0 1-2.656-3.093 7.21 7.21 0 0 1-.552-4.043c.209-1.373.81-2.656 1.73-3.694a7.18 7.18 0 0 1 3.456-2.157 7.17 7.17 0 0 1 4.071.072 7.18 7.18 0 0 1 3.378 2.279 7.21 7.21 0 0 1 1.599 3.753h7.212a14.43 14.43 0 0 0-4.641-9.794 14.37 14.37 0 0 0-20.042.581c-2.608 2.691-4.068 6.295-4.068 10.046s1.459 7.355 4.068 10.046a14.37 14.37 0 0 0 20.042.581 14.43 14.43 0 0 0 4.641-9.794H51.73c-.204 1.755-1.045 3.373-2.363 4.546s-3.02 1.821-4.782 1.818zM20.951 20.334V34.47c0 3.698-3.278 6.694-6.969 6.694s-6.999-3.007-6.999-6.694V20.334H0V34.47a14.05 14.05 0 0 0 1.064 5.362 14.01 14.01 0 0 0 3.031 4.545 13.96 13.96 0 0 0 4.536 3.036 13.95 13.95 0 0 0 5.351 1.065c2.664 0 4.713-.68 6.969-2.748v2.79c0 3.698-2.907 6.694-6.969 6.694S6.695 52.21 6.695 48.52H0a14.02 14.02 0 0 0 4.175 9.759 13.97 13.97 0 0 0 9.806 4.023c3.669 0 7.191-1.445 9.806-4.023s4.115-6.083 4.175-9.759V20.361l-7.01-.026z"/></g><g fill="#fcaf17"><path d="M113.333 20.334V34.47c0 3.698-3.278 6.694-6.969 6.694s-6.999-3.004-6.999-6.694V20.334h-6.984V34.47a14.05 14.05 0 0 0 1.064 5.362c.702 1.7 1.733 3.244 3.031 4.545s2.84 2.333 4.537 3.036a13.95 13.95 0 0 0 5.35 1.065c2.664 0 4.713-.68 6.969-2.748v2.79c0 3.698-2.907 6.694-6.969 6.694s-7.287-3.004-7.287-6.694h-6.695a14.02 14.02 0 0 0 4.175 9.759 13.97 13.97 0 0 0 9.806 4.023c3.669 0 7.191-1.445 9.806-4.023s4.115-6.083 4.175-9.759V20.361l-7.01-.026zM82.513 5.936v16.036a12.54 12.54 0 0 0-7.37-2.452c-7.493 0-13.585 6.007-14.005 13.565h7.179a7.23 7.23 0 0 1 2.524-4.701c1.409-1.187 3.218-1.789 5.056-1.683s3.566.913 4.829 2.254 1.968 3.116 1.968 4.961-.704 3.62-1.968 4.961-2.991 2.148-4.829 2.254-3.647-.496-5.056-1.682a7.23 7.23 0 0 1-2.524-4.701h-7.179c.423 7.562 6.53 13.562 14.005 13.562 2.674-.048 5.268-.927 7.422-2.516l1.019 2.185h5.961V5.936h-7.032z"/></g><g fill="#fff"><path d="M9.76 70.783H2.898v11.919h1.584v-5.057h5.057v-1.498H4.482v-3.865H9.76v-1.498zm10.921 11.919l-4.444-11.919h-1.788l-4.444 11.919h1.686l.97-2.673h5.364l.971 2.673h1.686zm-5.346-10.029l2.145 5.874h-4.274l2.128-5.874zM25.62 82.924c1.226 0 2.214-.306 2.98-.919.766-.63 1.141-1.464 1.141-2.503 0-.749-.17-1.362-.596-1.788-.29-.341-.443-.528-.92-.783-.46-.255-.596-.341-1.192-.562l-.63-.238-.698-.221c-.919-.29-1.566-.579-1.941-.851s-.562-.664-.562-1.192c0-1.09.868-1.771 2.163-1.771s2.197.613 2.707 1.839l1.328-.766a4.28 4.28 0 0 0-4.035-2.605c-1.039 0-1.924.306-2.656.919-.732.596-1.09 1.413-1.09 2.452 0 .868.358 1.566.749 1.992.187.204.477.409.868.613l.988.443 1.141.375c1.005.323 1.737.613 2.162.902s.647.715.647 1.277c0 1.107-.885 1.839-2.52 1.839-1.652 0-2.724-.715-3.184-2.162l-1.362.783c.63 1.822 2.282 2.929 4.512 2.929zm13.285-7.084h-5.789v-5.057h-1.583v11.919h1.583v-5.364h5.789v5.364h1.567V70.783h-1.567v5.057zm4.117 6.862h1.583V70.783h-1.583v11.919zm3.51-5.959c0 1.72.596 3.167 1.788 4.376s2.656 1.805 4.376 1.805 3.184-.596 4.376-1.805c1.209-1.209 1.805-2.656 1.805-4.376s-.596-3.184-1.805-4.376c-1.192-1.209-2.656-1.805-4.376-1.805s-3.184.596-4.376 1.805c-1.192 1.192-1.788 2.656-1.788 4.376zm10.761 0c0 1.311-.443 2.401-1.328 3.303-.868.885-1.958 1.328-3.269 1.328s-2.401-.443-3.286-1.328c-.868-.902-1.311-1.992-1.311-3.303s.443-2.418 1.311-3.303c.885-.902 1.975-1.345 3.286-1.345s2.401.443 3.269 1.345c.885.886 1.328 1.992 1.328 3.303zm10.894 2.928l-6.13-8.888H60.78v11.919h1.584v-8.905l6.13 8.905h1.277V70.783h-1.584v8.888zm7.419-8.888v1.498h3.508v10.421h1.567v-10.42h3.525v-1.498h-8.599zm11.75 6.641h5.023v-1.481h-5.023v-3.661h5.449v-1.498h-7.032v11.919h7.117v-1.498h-5.534v-3.78zm12.964 5.5a5.94 5.94 0 0 0 3.014-.783 5.56 5.56 0 0 0 2.128-2.128l-1.379-.783c-.681 1.294-2.129 2.145-3.763 2.145-1.379 0-2.503-.443-3.371-1.328s-1.294-1.992-1.294-3.303c0-1.328.426-2.435 1.294-3.32s1.992-1.328 3.371-1.328c1.634 0 3.082.851 3.763 2.162l1.379-.8c-1.022-1.771-2.963-2.895-5.142-2.895-1.805 0-3.303.596-4.478 1.788s-1.754 2.656-1.754 4.393.579 3.201 1.754 4.393 2.673 1.788 4.478 1.788zm14.308-7.084h-5.789v-5.057h-1.584v11.919h1.584v-5.364h5.789v5.364h1.567V70.783h-1.567v5.057z"/></g></g><defs><clipPath id="A"><path fill="#fff" d="M0 0h120v83H0z"/></clipPath></defs></svg>
